X:0010
T:The Grand Parade.
M:6/8
L:1/8
Q:3/8=112
I: :: ::
%% D  E ^F  G  A  B ^c  d  e ^f  g  a
Z:Jack Campin * www.campin.me.uk * 2009
K:D
d2f agf|e2f gfe|fed edc|dAG FED|
d2f agf|e2f gfe|fed edc|d3  D3:|
f2d cBA|AdG FED|DFD EGE|FAG FED|
GBG AcA|ced cBA|dfd edc|d3  D3:|
<end>
<start>
